X:1
T:Title
%%score { ( 1 4 5 ) | ( 2 3 6 ) }
L:1/8
M:4/4
K:Bb
V:1 treble nm="Grand Piano"
V:4 treble 
V:5 treble 
V:2 bass 
V:3 bass 
V:6 bass 
V:1
 z4 z2 [F,CF]2[Q:1/4=110] | B2 z2 z4 | z2 A4 z2 | .G2 z2[K:bass] D4- | D2 z2[K:treble] [B,F]4 | %5
 z4 [CF]4 | z8 | z4 F4- | F2 z2 B4- | B2 z2 A4- | A2 z2 A2 z2 |[M:5/8] [DB]-[DB]- [DB]3 | %12
[M:3/8] FED |[M:4/4] z4 [DF-]4 | F2 z2 z4 | G6 z2 | A2 z2 A4- | A2 z2 z4 | %18
[M:5/8] [DB]-[DB]- [DB]3 |[M:3/8] z [F,CF]2 |[M:4/4] B2 z2 z4 | z2 A4 z2 | .G2 z2[K:bass] D4- | %23
 D2 z2[K:treble] [B,F]4 | z4 [CF]4 | z8 | z4 F4- | F2 z2 B4- | B2 z2 A4- | A2 z2 A2 z2 | %30
[M:13/8] [DB]-[DB]- [DB]3 z z z z z z z2 |] %31
V:2
 z4 z F z z/[K:treble] B/ | F,3- F,/-[F,-A]/ [D,F,-]2 F,-[F,D] | [F,A,C]4 [C,F,]4 | %3
 [G,,E,]2 z z/ C/ B,,2 C,2 | z z/[K:treble] B/ A>c[K:bass] D,2 F,2 | %5
 z z/[K:treble] A/ G>B[K:bass] C,2 F,2 | z z/[K:treble] G/ F>A[K:bass] B,,2 E,2 | %7
 z z/ F/ z z/ D/ B,,2 C,2 | z z/[K:treble] B/ A>c[K:bass] D,2 F,2 | %9
 z z/[K:treble] A/ G>B[K:bass] C,2 F,2 | z z/[K:treble] G/ F>G[K:bass] z z/ B/ F,2 | %11
[M:5/8] [B,,F,]-[B,,F,]- [B,,F,]3- |[M:3/8] [B,,F,]3 |[M:4/4] [B,,B,]2 [C,F,A,]2 D,2 E,2 | %14
 z z/[K:treble] G/ G>F z z/ F/ z z/ D/ | E,2 D,2 z z/[K:treble] A/ A>G | %16
 z z/[K:treble] G/ F>G[K:bass] F,2- [C,F,]2 | [F,A,]4 F,->[F,-B] F,->[F,c] | %18
[M:5/8] [B,,F,]-[B,,F,]- [B,,F,]3 |[M:3/8] F z z/[K:treble] B/ | %20
[M:4/4][K:bass] F,3- F,/-[F,-A]/ [D,F,-]2 F,-[F,D] | [F,A,C]4 [C,F,]4 | [G,,E,]2 z z/ C/ B,,2 C,2 | %23
 z z/[K:treble] B/ A>c[K:bass] D,2 F,2 | z z/[K:treble] A/ G>B[K:bass] C,2 F,2 | %25
 z z/[K:treble] G/ F>A[K:bass] B,,2 E,2 | z z/ F/ z z/ D/ B,,2 C,2 | %27
 z z/[K:treble] B/ A>c[K:bass] D,2 F,2 | z z/[K:treble] A/ G>B[K:bass] C,2 F,2 | %29
 z z/[K:treble] G/ F>G[K:bass] z z/ B/ F,2 |[M:13/8] [B,,F,]-[B,,F,]- [B,,F,]3 z z z z z z z2 |] %31
V:3
 z4 z2 A,,2[K:treble] | B,,2 C,2 z2 E,2 | x8 | z2 [A,,D,]2 z4 | D,4[K:treble][K:bass] z4 | %5
 B,,4[K:treble][K:bass] z4 | A,,4[K:treble][K:bass] z4 | G,,2 A,,2 z4 | F,4[K:treble][K:bass] z4 | %9
 B,,4[K:treble][K:bass] z4 | A,,4[K:treble][K:bass] C,2 z2 |[M:5/8] x5 |[M:3/8] x3 |[M:4/4] x8 | %14
 z4[K:treble] z2 E2 | z4 C,4[K:treble] | C,4[K:treble][K:bass] A,,2 z2 | z4 A,,2 C,2 |[M:5/8] x5 | %19
[M:3/8] z A,,2[K:treble] |[M:4/4][K:bass] B,,2 C,2 z2 E,2 | x8 | z2 [A,,D,]2 z4 | %23
 D,4[K:treble][K:bass] z4 | B,,4[K:treble][K:bass] z4 | A,,4[K:treble][K:bass] z4 | G,,2 A,,2 z4 | %27
 F,4[K:treble][K:bass] z4 | B,,4[K:treble][K:bass] z4 | A,,4[K:treble][K:bass] C,2 z2 | %30
[M:13/8] x13 |] %31
V:4
 x8 | D->[D-F] [DF]2 [FA]2 [EG]F | A2 z2 z FFG | B,-[B,F] [DF]>E[K:bass] [F,B,]4- | %4
 [F,B,]4[K:treble] B4- | [F,-D-B]2 [F,D]2 A4- | [F,-C-A]2 [F,C]2 [B,EG]4- | %7
 [B,EG]2 [F,CE]2 [B,D]4- | [B,D]4 [B,F]4 | [F,D]4 [CF]4 | [F,C]4 [EF]2- [E-F-c]>[EFd] |[M:5/8] x5 | %12
[M:3/8] x3 |[M:4/4] F>F E>D B,4- | [B,-D]4 [B,-EG]2 B,2 | [CE]8 | [A,E]4 D2 E2 | %17
 z z/ d/ d>c [Fc]2 [EA]2 |[M:5/8] x5 |[M:3/8] x3 |[M:4/4] D->[D-F] [DF]2 [FA]2 [EG]F | %21
 A2 z2 z FFG | B,-[B,F] [DF]>E[K:bass] [F,B,]4- | [F,B,]4[K:treble] B4- | [F,-D-B]2 [F,D]2 A4- | %25
 [F,-C-A]2 [F,C]2 [B,EG]4- | [B,EG]2 [F,CE]2 [B,D]4- | [B,D]4 [B,F]4 | [F,D]4 [CF]4 | %29
 [F,C]4 [EF]2- [E-F-c]>[EFd] |[M:13/8] x13 |] %31
V:5
 x8 | x8 | z4 E4 | x4[K:bass] x4 | x4[K:treble] x4 | x8 | x8 | x8 | x8 | x8 | x8 |[M:5/8] x5 | %12
[M:3/8] x3 |[M:4/4] x8 | x8 | x8 | x8 | C4 z4 |[M:5/8] x5 |[M:3/8] x3 |[M:4/4] x8 | z4 E4 | %22
 x4[K:bass] x4 | x4[K:treble] x4 | x8 | x8 | x8 | x8 | x8 | x8 |[M:13/8] x13 |] %31
V:6
 x15/2[K:treble] x/ | x8 | x8 | x8 | x3/2[K:treble] x5/2[K:bass] x4 | %5
 x3/2[K:treble] x5/2[K:bass] x4 | x3/2[K:treble] x5/2[K:bass] x4 | x8 | %8
 x3/2[K:treble] x5/2[K:bass] x4 | x3/2[K:treble] x5/2[K:bass] x4 | x3/2[K:treble] x5/2[K:bass] x4 | %11
[M:5/8] x5 |[M:3/8] x3 |[M:4/4] x8 | F,4[K:treble] E,4 | x11/2[K:treble] x5/2 | %16
 x3/2[K:treble] x5/2[K:bass] x4 | x8 |[M:5/8] x5 |[M:3/8] x5/2[K:treble] x/ |[M:4/4][K:bass] x8 | %21
 x8 | x8 | x3/2[K:treble] x5/2[K:bass] x4 | x3/2[K:treble] x5/2[K:bass] x4 | %25
 x3/2[K:treble] x5/2[K:bass] x4 | x8 | x3/2[K:treble] x5/2[K:bass] x4 | %28
 x3/2[K:treble] x5/2[K:bass] x4 | x3/2[K:treble] x5/2[K:bass] x4 |[M:13/8] x13 |] %31

